src/assets/icon-classification.svg

<?xml version="1.0" encoding="UTF-8"?>
<svg width="16px" height="16px" viewBox="0 0 16 16" version="1.1" xmlns="http://www.w3.org/2000/svg" xmlns:xlink="http://www.w3.org/1999/xlink">
    <title>icon_分类</title>
    <g id="页面-1" stroke="none" stroke-width="1" fill="none" fill-rule="evenodd">
        <g id="藏品展示-3D" transform="translate(-152.000000, -686.000000)" fill="#FFFFFF" fill-rule="nonzero">
            <g id="编组-3" transform="translate(16.000000, 666.000000)">
                <g id="编组-6" transform="translate(136.000000, 16.000000)">
                    <g id="icon_分类" transform="translate(0.000000, 4.000000)">
                        <path d="M9.194,12.2 C9.194,13.860168 10.539832,15.206 12.2,15.206 C13.860168,15.206 15.206,13.860168 15.206,12.2 C15.206,10.539832 13.860168,9.194 12.2,9.194 L9.64799999,9.194 C9.3956,9.194 9.19439999,9.3956 9.19439999,9.6476 L9.19439999,12.2 L9.194,12.2 Z M12.2,8.39999838 C14.298682,8.39999838 16,10.1013179 16,12.2 C16,14.298682 14.298682,16 12.2,16 C10.1013179,16 8.39999767,14.298682 8.39999767,12.2 L8.39999767,9.64799999 C8.39936158,9.31688385 8.53058694,8.99913979 8.76468431,8.76496736 C8.99878169,8.53079493 9.31648367,8.39946772 9.6476,8.39999838 L12.2,8.39999838 L12.2,8.39999838 Z M7.60000162,12.2 C7.60000162,14.298682 5.89868205,16 3.8,16 C1.70131795,16 0,14.298682 0,12.2 C0,10.1013179 1.70131795,8.39999838 3.8,8.39999838 L6.3524,8.39999838 C6.68344689,8.39946802 7.00108802,8.53074037 7.23517382,8.76482618 C7.46925963,8.99891198 7.60053198,9.31655311 7.60000162,9.6476 L7.60000162,12.2 Z M3.8,9.194 C2.13983205,9.194 0.794000006,10.539832 0.794000006,12.2 C0.794000006,13.860168 2.13983205,15.206 3.8,15.206 C5.46016796,15.206 6.806,13.860168 6.806,12.2 L6.806,9.64799999 C6.806,9.39599999 6.60479999,9.19439999 6.3524,9.19439999 L3.8,9.19439999 L3.8,9.194 Z M8.39999838,3.79960001 C8.4002209,1.70097004 10.1016367,-0.000147256747 12.2002666,9.35594358e-09 C14.2988966,0.000147275459 16,1.70150334 16,3.80013332 C16,5.8987633 14.29863,7.60000233 12.2,7.60000233 L9.64799999,7.60000233 C9.31688385,7.60063842 8.99913979,7.46941306 8.76496736,7.23531569 C8.53079493,7.00121831 8.39946772,6.68351633 8.39999838,6.3524 L8.39999838,3.8 L8.39999838,3.79960001 Z M12.2,6.806 C13.860168,6.806 15.206,5.46016796 15.206,3.8 C15.206,2.13983205 13.860168,0.794000006 12.2,0.794000006 C10.539832,0.794000006 9.194,2.13983205 9.194,3.8 L9.194,6.3524 C9.194,6.6044 9.39520001,6.806 9.6476,6.806 L12.2,6.806 L12.2,6.806 Z M6.806,3.8 C6.806,2.13983205 5.46016796,0.794000006 3.8,0.794000006 C2.13983205,0.794000006 0.794000006,2.13983205 0.794000006,3.8 C0.794000006,5.46016796 2.13983205,6.806 3.8,6.806 L6.3524,6.806 C6.60479999,6.806 6.806,6.6044 6.806,6.3524 L6.806,3.8 Z M3.8,7.60000162 C1.70131795,7.60000162 0,5.89868205 0,3.8 C0,1.70131795 1.70131795,0 3.8,0 C5.89868205,0 7.60000162,1.70131795 7.60000162,3.8 L7.60000162,6.3524 C7.60053198,6.68344689 7.46925963,7.00108802 7.23517382,7.23517382 C7.00108802,7.46925963 6.68344689,7.60053198 6.3524,7.60000162 L3.8,7.60000162 Z" id="形状"></path>
                    </g>
                </g>
            </g>
        </g>
    </g>
</svg>

<svg xmlns="http://www.w3.org/2000/svg" width="16" height="16" xmlns:v="https://vecta.io/nano"><path d="M9.194 12.2c0 1.66 1.346 3.006 3.006 3.006s3.006-1.346 3.006-3.006S13.86 9.194 12.2 9.194H9.648a.45.45 0 0 0-.454.454V12.2h0zM12.2 8.4a3.8 3.8 0 1 1 0 7.6 3.8 3.8 0 0 1-3.8-3.8V9.648c-.001-.331.131-.649.365-.883s.552-.365.883-.365H12.2h0zm-4.6 3.8A3.8 3.8 0 0 1 3.8 16a3.8 3.8 0 1 1 0-7.6h2.552c.331-.001.649.131.883.365s.365.552.365.883V12.2zM3.8 9.194C2.14 9.194.794 10.54.794 12.2S2.14 15.206 3.8 15.206 6.806 13.86 6.806 12.2V9.648a.45.45 0 0 0-.454-.454H3.8h0zM8.4 3.8A3.8 3.8 0 1 1 16 3.8a3.8 3.8 0 0 1-3.8 3.8H9.648c-.331.001-.649-.131-.883-.365s-.365-.552-.365-.883V3.8h0zm3.8 3.006c1.66 0 3.006-1.346 3.006-3.006S13.86.794 12.2.794 9.194 2.14 9.194 3.8v2.552a.45.45 0 0 0 .454.454H12.2h0zM6.806 3.8C6.806 2.14 5.46.794 3.8.794S.794 2.14.794 3.8 2.14 6.806 3.8 6.806h2.552a.45.45 0 0 0 .454-.454V3.8zM3.8 7.6A3.8 3.8 0 0 1 0 3.8a3.8 3.8 0 1 1 7.6 0v2.552c.001.331-.131.649-.365.883s-.552.365-.883.365H3.8z" fill="#fff"/></svg>
